modules/hawcons-filled/icons/icon-46-bowling-pin-ball.svg

<?xml version="1.0" encoding="UTF-8" standalone="no"?>
<svg width="32px" height="32px" viewBox="0 0 32 32" version="1.1" xmlns="http://www.w3.org/2000/svg" xmlns:xlink="http://www.w3.org/1999/xlink" xmlns:sketch="http://www.bohemiancoding.com/sketch/ns">
    <!-- Generator: Sketch 3.0.3 (7891) - http://www.bohemiancoding.com/sketch -->
    <title>icon 46 bowling pin ball</title>
    <desc>Created with Sketch.</desc>
    <defs></defs>
    <g id="Page-1" stroke="none" stroke-width="1" fill="none" fill-rule="evenodd" sketch:type="MSPage">
        <g id="icon-46-bowling-pin-ball" sketch:type="MSArtboardGroup" fill="#929292">
            <path d="M14.3111687,27.4704684 C14.1244085,27.8132315 14,28 14,28 L10,28 C10,28 8,25 8,20.9760742 C8,18.3573829 8.84702979,16.1926053 9.43862891,15 L9.43862891,15 L14.5610756,15 C14.7944326,15.4705781 15.0675724,16.0924672 15.3128042,16.8337194 C13.3353676,17.9483886 12,20.0682484 12,22.5 C12,24.4939083 12.8977859,26.2781275 14.3111687,27.4704684 L14.3111687,27.4704684 L14.3111687,27.4704684 Z M10,14 L10,12 L14,12 L14,14 L10,14 L10,14 L10,14 Z M9.91298002,11 C9.66966457,9.62015878 9,8.72749553 9,7.5 C9,6.38772964 10,5 12,5 C14,5 15,6.3954305 15,7.5 C15,8.72749553 14.3303354,9.62015878 14.08702,11 L9.91298002,11 L9.91298002,11 L9.91298002,11 Z M18.5,28 C21.5375661,28 24,25.5375661 24,22.5 C24,19.4624339 21.5375661,17 18.5,17 C15.4624339,17 13,19.4624339 13,22.5 C13,25.5375661 15.4624339,28 18.5,28 L18.5,28 Z M18.5,20 C18.7761424,20 19,19.7761424 19,19.5 C19,19.2238576 18.7761424,19 18.5,19 C18.2238576,19 18,19.2238576 18,19.5 C18,19.7761424 18.2238576,20 18.5,20 L18.5,20 Z M17.5,22 C17.7761424,22 18,21.7761424 18,21.5 C18,21.2238576 17.7761424,21 17.5,21 C17.2238576,21 17,21.2238576 17,21.5 C17,21.7761424 17.2238576,22 17.5,22 L17.5,22 Z M19.5,22 C19.7761424,22 20,21.7761424 20,21.5 C20,21.2238576 19.7761424,21 19.5,21 C19.2238576,21 19,21.2238576 19,21.5 C19,21.7761424 19.2238576,22 19.5,22 L19.5,22 Z" id="bowling-pin-ball" sketch:type="MSShapeGroup"></path>
        </g>
    </g>
</svg>

<svg width="32" height="32" xmlns="http://www.w3.org/2000/svg"><path d="M14.311 27.47c-.187.343-.311.53-.311.53h-4s-2-3-2-7.024c0-2.619.847-4.783 1.439-5.976h5.122c.233.47.507 1.092.752 1.834A6.498 6.498 0 0 0 12 22.5c0 1.994.898 3.778 2.311 4.97zM10 14v-2h4v2h-4zm-.087-3C9.67 9.62 9 8.727 9 7.5 9 6.388 10 5 12 5s3 1.395 3 2.5c0 1.227-.67 2.12-.913 3.5H9.913zM18.5 28a5.5 5.5 0 1 0 0-11 5.5 5.5 0 0 0 0 11zm0-8a.5.5 0 1 0 0-1 .5.5 0 0 0 0 1zm-1 2a.5.5 0 1 0 0-1 .5.5 0 0 0 0 1zm2 0a.5.5 0 1 0 0-1 .5.5 0 0 0 0 1z" fill="#929292" fill-rule="evenodd"/></svg>
